Papirus/32x32/apps/steam_icon_341800.svg

<svg width="32" height="32" version="1.1" xmlns="http://www.w3.org/2000/svg">
 <circle cx="13.000002" cy="20" r="10" style="opacity:.2"/>
 <path d="m22.5 16.999999 1.5-2-4-4.499999-3 0.5z" style="opacity:.2"/>
 <path d="m22.363829 13.202637s1.963211 0.175693 2.683385-0.440077c0.720173-0.61577 0.615241-0.781815 0.588689-1.183302-0.02655-0.401487-0.325373-0.560617-0.327229-1.039204-0.0018-0.478587 0.191326-0.540054 0.191326-0.540054h0.5l0.5 1.5v-1l2 1-1.5-1.5h2l-2-1.5 2-1.5-2.5 0.5 1-3.5-2.127983 3.163286-0.872017-2.163286v2l-1-1 0.352866 1.777332-2.352866-0.777332 2 1.5 1 0.5s-0.182613 0.868321-0.134121 1.314806c0.04849 0.446485 0.394696 0.956139 0.378691 1.266268-0.01601 0.31013-0.06883 0.824758-1.485087 0.804082-1.416261-0.02067-1.904206-0.159625-1.904206-0.159625z" style="opacity:.2"/>
 <circle cx="13.000002" cy="19" r="10" style="fill:#e4e4e4"/>
 <path d="m22.5 16 1.5-2-4-4.4999992-3 0.5000002z" style="fill:#e4e4e4"/>
 <path d="m22.363829 12.202638s1.963211 0.175693 2.683385-0.440077c0.720173-0.61577 0.615241-0.781815 0.588689-1.183302-0.02655-0.401487-0.325373-0.560617-0.327229-1.0392042-0.0018-0.478587 0.191326-0.540054 0.191326-0.540054h0.5l0.5 1.5000002v-1.0000002l2 1.0000002-1.5-1.5000002h2l-2-1.5 2-1.5-2.5 0.5 1-3.5-2.127983 3.163286-0.872017-2.163286v2l-1-1 0.352866 1.777332-2.352866-0.777332 2 1.5 1 0.5s-0.182613 0.868321-0.134121 1.314806c0.04849 0.446485 0.394696 0.9561392 0.378691 1.2662682-0.01601 0.31013-0.06883 0.824758-1.485087 0.804082-1.416261-0.02067-1.904206-0.159625-1.904206-0.159625z" style="fill:#e4e4e4"/>
 <circle cx="13.000002" cy="19" r="8" style="fill:#4f4f4f"/>
 <circle cx="13.000002" cy="19" r="7.5" style="fill:#c2352a"/>
 <rect x="16.500002" y="20.000437" width="3.5" height="1" ry=".5" style="opacity:.2"/>
 <rect transform="rotate(-30)" x="4.3717337" y="24.396849" width="3.5000002" height="1" ry=".5" style="opacity:.2"/>
 <rect x="16.500002" y="19" width="3.5" height="1" ry=".5" style="fill:#e4e4e4"/>
 <rect transform="rotate(-30)" x="4.8719521" y="23.530445" width="3.5000002" height="1" ry=".5" style="fill:#e4e4e4"/>
 <path d="m16.679688 21.316406c-0.17724-0.004787-0.350094 0.08703-0.445313 0.251953-0.1385 0.239889-0.056295 0.543141 0.183594 0.681641l2.164062 1.25c0.11059 0.063849 0.236076 0.080294 0.351563 0.056641a7.5 7.5 0 0 0 0.396484-0.541016c-0.016096-0.15357-0.103508-0.29741-0.248047-0.380859l-2.164062-1.25c-0.074966-0.043282-0.157718-0.066184-0.238281-0.06836z" style="opacity:.2"/>
 <rect transform="matrix(.8660254 .5 .5 -.8660254 0 0)" x="24.342945" y="-10.194305" width="3.5000002" height="1" ry=".5" style="fill:#e4e4e4"/>
 <path d="m13 12.5c-3.9350285 0-7.1597714 3.030355-7.4726562 6.884766a7.5 7.5 0 0 0 7.4726562 7.115234 7.5 7.5 0 0 0 0.078125-0.005859c0.249236-0.112904 0.379352-0.235501 0.535156-0.351563 0.331455-0.246907 0.41211-1.017578 0.41211-1.017578s-0.030198-1.708975 0.039062-1.839844c0.06927-0.130868 0.86555-0.954538 0.826172-1.11914-0.03362-0.140516-0.786964-0.671199-0.982422-0.824219-0.195458-0.153021-1.30664-0.857422-1.306641-0.857422 0 0-0.171519-0.070237-0.193359-0.197266-0.02184-0.127032 0.207031-0.24414 0.207031-0.24414s2.778759-1.226749 2.847657-1.371094c0.06928-0.145154-0.459293-0.417642-0.623047-0.808594-0.163754-0.390951 0.016247-0.978387 0.101562-1.039062 1e-6 -1e-6 0.541322-0.01376 0.792969-0.03711 0.251648-0.02335 0.668395-0.164603 0.818359-0.701171 0.149965-0.536565-0.968764-1.137344-1.824218-1.917969-0.474452-0.432952-0.589305-1.083411-0.59961-1.582031-0.373921-0.057101-0.75065-0.085818-1.128906-0.085938z" style="opacity:.2"/>
 <path d="m13 11.500001c-4.1421353 0-7.5000003 3.357864-7.5000003 7.499999 0.0011 2.94975 1.7312 5.624927 4.420899 6.835938 0.4584233 0.03317 1.0176153 0.04303 1.6279293-0.01758 1.537459-0.152692 1.732999-0.427898 2.064453-0.674805 0.331455-0.246907 0.413086-1.017578 0.413086-1.017578s-0.03118-1.709952 0.03808-1.840821c0.06927-0.130868 0.86555-0.954538 0.826172-1.11914-0.03362-0.140516-0.786964-0.670222-0.982422-0.823242-0.195458-0.153021-1.306641-0.858399-1.306641-0.858399s-0.171519-0.06926-0.193359-0.196289c-0.02184-0.127032 0.207031-0.24414 0.207031-0.24414s2.778759-1.226749 2.847657-1.371094c0.06928-0.145154-0.458316-0.417642-0.62207-0.808594-0.163754-0.390951 0.01527-0.978387 0.100585-1.039062 1e-6 -1e-6 0.541322-0.01571 0.792969-0.03906 0.251648-0.02335 0.669372-0.163627 0.819336-0.700196 0.149965-0.536565-0.969741-1.137339-1.825195-1.917964-0.474452-0.432952-0.588327-1.083411-0.598632-1.582031-0.373921-0.0571-0.751627-0.08582-1.129883-0.08594z" style="fill:#e4e4e4"/>
</svg>

<?xml version="1.0" encoding="UTF-8" standalone="no"?>
<svg
   width="32"
   height="32"
   version="1.1"
   id="svg2485"
   sodipodi:docname="steam_icon_341800@32x32.svg"
   inkscape:version="1.1.1 (3bf5ae0d25, 2021-09-20, custom)"
   xmlns:inkscape="http://www.inkscape.org/namespaces/inkscape"
   xmlns:sodipodi="http://sodipodi.sourceforge.net/DTD/sodipodi-0.dtd"
   xmlns="http://www.w3.org/2000/svg"
   xmlns:svg="http://www.w3.org/2000/svg">
  <defs
     id="defs2489" />
  <sodipodi:namedview
     id="namedview2487"
     pagecolor="#505050"
     bordercolor="#eeeeee"
     borderopacity="1"
     inkscape:pageshadow="0"
     inkscape:pageopacity="0"
     inkscape:pagecheckerboard="0"
     showgrid="false"
     inkscape:zoom="13.305171"
     inkscape:cx="1.1649606"
     inkscape:cy="18.0381"
     inkscape:window-width="1920"
     inkscape:window-height="1011"
     inkscape:window-x="0"
     inkscape:window-y="32"
     inkscape:window-maximized="1"
     inkscape:current-layer="svg2485">
    <inkscape:grid
       type="xygrid"
       id="grid2548" />
  </sodipodi:namedview>
  <circle
     style="opacity:0.2;fill:#000000;fill-opacity:1;stroke-width:0.512255"
     id="circle3313"
     cx="13.000002"
     cy="20"
     r="10" />
  <path
     style="opacity:0.2;fill:#000000;fill-opacity:1;stroke:none;stroke-width:0.5px;stroke-linecap:butt;stroke-linejoin:miter;stroke-opacity:1"
     d="m 22.5,16.999999 1.5,-2 L 20,10.5 17,11 Z"
     id="path3315" />
  <path
     style="opacity:0.2;fill:#000000;fill-opacity:1;stroke:none;stroke-width:0.5px;stroke-linecap:butt;stroke-linejoin:miter;stroke-opacity:1"
     d="m 22.363829,13.202637 c 0,0 1.963211,0.175693 2.683385,-0.440077 0.720173,-0.61577 0.615241,-0.781815 0.588689,-1.183302 C 25.609353,11.177771 25.31053,11.018641 25.308674,10.540054 25.306874,10.061467 25.5,10 25.5,10 H 26 l 0.5,1.5 v -1 l 2,1 L 27,10 h 2 L 27,8.5 29,7 26.5,7.5 27.5,4 25.372017,7.163286 24.5,5 V 7 L 23.5,6 23.852866,7.777332 21.5,7 l 2,1.5 1,0.5 c 0,0 -0.182613,0.868321 -0.134121,1.314806 0.04849,0.446485 0.394696,0.956139 0.378691,1.266268 -0.01601,0.31013 -0.06883,0.824758 -1.485087,0.804082 -1.416261,-0.02067 -1.904206,-0.159625 -1.904206,-0.159625 z"
     id="path3317"
     sodipodi:nodetypes="cssccccccccccccccccccccssscc" />
  <circle
     style="fill:#e4e4e4;fill-opacity:1;stroke-width:0.512255"
     id="path2734"
     cx="13.000002"
     cy="19"
     r="10" />
  <path
     style="fill:#e4e4e4;fill-opacity:1;stroke:none;stroke-width:0.5px;stroke-linecap:butt;stroke-linejoin:miter;stroke-opacity:1"
     d="M 22.5,16 24,14 20,9.5000008 17,10.000001 Z"
     id="path3031" />
  <path
     style="fill:#e4e4e4;fill-opacity:1;stroke:none;stroke-width:0.5px;stroke-linecap:butt;stroke-linejoin:miter;stroke-opacity:1"
     d="m 22.363829,12.202638 c 0,0 1.963211,0.175693 2.683385,-0.440077 0.720173,-0.61577 0.615241,-0.781815 0.588689,-1.183302 C 25.609353,10.177772 25.31053,10.018642 25.308674,9.5400548 25.306874,9.0614678 25.5,9.0000008 25.5,9.0000008 H 26 l 0.5,1.5000002 V 9.5000008 l 2,1.0000002 L 27,9.0000008 h 2 l -2,-1.5 2,-1.5 -2.5,0.5 1,-3.5 -2.127983,3.163286 L 24.5,4.0000008 v 2 l -1,-1 0.352866,1.777332 L 21.5,6.0000008 l 2,1.5 1,0.5 c 0,0 -0.182613,0.868321 -0.134121,1.314806 0.04849,0.446485 0.394696,0.9561392 0.378691,1.2662682 -0.01601,0.31013 -0.06883,0.824758 -1.485087,0.804082 -1.416261,-0.02067 -1.904206,-0.159625 -1.904206,-0.159625 z"
     id="path5759"
     sodipodi:nodetypes="cssccccccccccccccccccccssscc" />
  <circle
     style="fill:#4f4f4f;fill-opacity:1;stroke-width:0.409804"
     id="circle11261"
     cx="13.000002"
     cy="19"
     r="8" />
  <circle
     style="fill:#c2352a;fill-opacity:1;stroke-width:0.384191"
     id="circle11281"
     cx="13.000002"
     cy="19"
     r="7.5" />
  <rect
     style="opacity:0.2;fill:#000000;fill-opacity:1;stroke:none;stroke-width:0.5"
     id="rect3427"
     width="3.5"
     height="1"
     x="16.500002"
     y="20.000437"
     ry="0.5" />
  <rect
     style="opacity:0.2;fill:#000000;fill-opacity:1;stroke:none;stroke-width:0.5"
     id="rect3429"
     width="3.5000002"
     height="1"
     x="4.3717337"
     y="24.396849"
     ry="0.5"
     transform="rotate(-30)" />
  <rect
     style="fill:#e4e4e4;fill-opacity:1;stroke:none;stroke-width:0.5"
     id="rect34557"
     width="3.5"
     height="1"
     x="16.500002"
     y="19"
     ry="0.5" />
  <rect
     style="fill:#e4e4e4;fill-opacity:1;stroke:none;stroke-width:0.5"
     id="rect34741"
     width="3.5000002"
     height="1"
     x="4.8719521"
     y="23.530445"
     ry="0.5"
     transform="rotate(-30)" />
  <path
     id="rect3431"
     style="opacity:0.2;fill:#000000;fill-opacity:1;stroke:none;stroke-width:0.5"
     d="M 16.679688 21.316406 C 16.502448 21.311619 16.329594 21.403436 16.234375 21.568359 C 16.095875 21.808248 16.17808 22.1115 16.417969 22.25 L 18.582031 23.5 C 18.692621 23.563849 18.818107 23.580294 18.933594 23.556641 A 7.5 7.5 0 0 0 19.330078 23.015625 C 19.313982 22.862055 19.22657 22.718215 19.082031 22.634766 L 16.917969 21.384766 C 16.843003 21.341484 16.760251 21.318582 16.679688 21.316406 z " />
  <rect
     style="fill:#e4e4e4;fill-opacity:1;stroke:none;stroke-width:0.5"
     id="rect34743"
     width="3.5000002"
     height="1"
     x="24.342945"
     y="-10.194305"
     ry="0.5"
     transform="matrix(0.8660254,0.5,0.5,-0.8660254,0,0)" />
  <path
     id="path3490"
     style="opacity:0.2;fill:#000000;fill-opacity:1;stroke-width:0.384191"
     d="M 13 12.5 C 9.0649715 12.5 5.8402286 15.530355 5.5273438 19.384766 A 7.5 7.5 0 0 0 13 26.5 A 7.5 7.5 0 0 0 13.078125 26.494141 C 13.327361 26.381237 13.457477 26.25864 13.613281 26.142578 C 13.944736 25.895671 14.025391 25.125 14.025391 25.125 C 14.025391 25.125 13.995193 23.416025 14.064453 23.285156 C 14.133723 23.154288 14.930003 22.330618 14.890625 22.166016 C 14.857005 22.0255 14.103661 21.494817 13.908203 21.341797 C 13.712745 21.188776 12.601563 20.484375 12.601562 20.484375 C 12.601562 20.484375 12.430043 20.414138 12.408203 20.287109 C 12.386363 20.160077 12.615234 20.042969 12.615234 20.042969 C 12.615234 20.042969 15.393993 18.81622 15.462891 18.671875 C 15.532171 18.526721 15.003598 18.254233 14.839844 17.863281 C 14.67609 17.47233 14.856091 16.884894 14.941406 16.824219 C 14.941407 16.824218 15.482728 16.810459 15.734375 16.787109 C 15.986023 16.763759 16.40277 16.622506 16.552734 16.085938 C 16.702699 15.549373 15.58397 14.948594 14.728516 14.167969 C 14.254064 13.735017 14.139211 13.084558 14.128906 12.585938 C 13.754985 12.528837 13.378256 12.50012 13 12.5 z " />
  <path
     id="path35519"
     style="fill:#e4e4e4;fill-opacity:1;stroke-width:0.384191"
     d="m 13,11.500001 c -4.1421353,0 -7.5000003,3.357864 -7.5000003,7.499999 0.0011,2.94975 1.7312,5.624927 4.420899,6.835938 0.4584233,0.03317 1.0176153,0.04303 1.6279293,-0.01758 1.537459,-0.152692 1.732999,-0.427898 2.064453,-0.674805 0.331455,-0.246907 0.413086,-1.017578 0.413086,-1.017578 0,0 -0.03118,-1.709952 0.03808,-1.840821 0.06927,-0.130868 0.86555,-0.954538 0.826172,-1.11914 -0.03362,-0.140516 -0.786964,-0.670222 -0.982422,-0.823242 -0.195458,-0.153021 -1.306641,-0.858399 -1.306641,-0.858399 0,0 -0.171519,-0.06926 -0.193359,-0.196289 -0.02184,-0.127032 0.207031,-0.24414 0.207031,-0.24414 0,0 2.778759,-1.226749 2.847657,-1.371094 0.06928,-0.145154 -0.458316,-0.417642 -0.62207,-0.808594 -0.163754,-0.390951 0.01527,-0.978387 0.100585,-1.039062 1e-6,-10e-7 0.541322,-0.01571 0.792969,-0.03906 0.251648,-0.02335 0.669372,-0.163627 0.819336,-0.700196 0.149965,-0.536565 -0.969741,-1.137339 -1.825195,-1.917964 -0.474452,-0.432952 -0.588327,-1.083411 -0.598632,-1.582031 -0.373921,-0.0571 -0.751627,-0.08582 -1.129883,-0.08594 z"
     sodipodi:nodetypes="cccsscssscscsssssscc" />
</svg>
